src/images/icon/icon_label_admin.svg

<?xml version="1.0" encoding="UTF-8"?>
<svg width="20px" height="20px" viewBox="0 0 20 20" version="1.1" xmlns="http://www.w3.org/2000/svg" xmlns:xlink="http://www.w3.org/1999/xlink">
    
    <g id="Dashboard" stroke="none" stroke-width="1" fill="none" fill-rule="evenodd">
        <g id="00-切图" transform="translate(-1019.000000, -299.000000)" fill-rule="nonzero">
            <g id="编组-19" transform="translate(1019.000000, 299.000000)">
                <g id="编组" transform="translate(2.000000, 3.000000)">
                    <path d="M8.00100013,0 L8.001,14 L2.92767735,14 C2.29790368,14 1.77661389,13.5471857 1.60691171,12.9352488 L1.57601699,12.801791 L0.018809441,4.39948883 C-0.0411809834,4.07193225 0.0359529251,3.71657637 0.342698024,3.47318037 L0.342698024,3.47318037 L0.492777431,3.37147452 C0.552038562,3.33490915 0.596530152,3.31599159 0.66629463,3.29769605 L0.66629463,3.29769605 L0.851385195,3.25688963 L0.992947187,3.25543715 L1.20340775,3.30052115 C1.33137201,3.33182944 1.36446863,3.35661502 1.48030678,3.44336457 L1.48030678,3.44336457 L3.61740508,5.0769177 C3.72094523,5.15614577 3.8393519,5.13581241 3.9382649,4.9983636 L3.9382649,4.9983636 L7.30526067,0.326513086 L7.40321731,0.226756526 L7.54100775,0.128247042 C7.61677739,0.0789536058 7.67281953,0.0576951815 7.78385702,0.0361272033 L7.78385702,0.0361272033 L8.00100013,0 Z" id="形状结合" fill="#FFDF74"></path>
                    <path d="M16,0 L15.9999999,14 L10.9266772,14 C10.2969036,14 9.77561377,13.5471857 9.60591158,12.9352488 L9.57501687,12.801791 L8.01780932,4.39948883 C7.95781889,4.07193225 8.0349528,3.71657637 8.3416979,3.47318037 L8.3416979,3.47318037 L8.49177731,3.37147452 C8.55103844,3.33490915 8.59553003,3.31599159 8.6652945,3.29769605 L8.6652945,3.29769605 L8.85038507,3.25688963 L8.99194706,3.25543715 L9.20240763,3.30052115 C9.33037189,3.33182944 9.3634685,3.35661502 9.47930666,3.44336457 L9.47930666,3.44336457 L11.616405,5.0769177 C11.7199451,5.15614577 11.8383518,5.13581241 11.9372648,4.9983636 L11.9372648,4.9983636 L15.3042605,0.326513086 L15.4022172,0.226756526 L15.5400076,0.128247042 C15.6157773,0.0789536058 15.6718194,0.0576951815 15.7828569,0.0361272033 L15.7828569,0.0361272033 L16,0 Z" id="形状结合" fill="#FFC608" transform="translate(11.999500, 7.000000) scale(-1, 1) translate(-11.999500, -7.000000) "></path>
                </g>
            </g>
        </g>
    </g>
</svg>

<svg height="20" viewBox="0 0 20 20" width="20" xmlns="http://www.w3.org/2000/svg"><g fill="none" transform="translate(2 3)"><path d="m8.00100013 0-.00000013 14h-5.07332265c-.62977367 0-1.15106346-.4528143-1.32076564-1.0647512l-.03089472-.1334578-1.55720755-8.40230217c-.05999042-.32755658.01714349-.68291246.32388858-.92630846l.15007941-.10170585c.05926113-.03656537.10375272-.05548293.1735172-.07377847l.18509057-.04080642.14156199-.00145248.21046056.045084c.12796426.03130829.16106088.05609387.27689903.14284342l2.1370983 1.63355313c.10354015.07922807.22194682.05889471.32085982-.0785541l3.36699577-4.67185051.09795664-.09975656.13779044-.09850949c.07576964-.04929343.13181178-.07055186.24284927-.09211984z" fill="#ffdf74"/><path d="m16 0-.0000001 14h-5.0733227c-.6297736 0-1.15106343-.4528143-1.32076562-1.0647512l-.03089471-.1334578-1.55720755-8.40230217c-.05999043-.32755658.01714348-.68291246.32388858-.92630846l.15007941-.10170585c.05926113-.03656537.10375272-.05548293.17351719-.07377847l.18509057-.04080642.14156199-.00145248.21046057.045084c.12796426.03130829.16106087.05609387.27689903.14284342l2.13709834 1.63355313c.1035401.07922807.2219468.05889471.3208598-.0785541l3.3669957-4.67185051.0979567-.09975656.1377904-.09850949c.0757697-.04929343.1318118-.07055186.2428493-.09211984z" fill="#ffc608" transform="matrix(-1 0 0 1 23.999 0)"/></g></svg>
